images/ico_help_step6.svg

<svg width="113" height="113" viewBox="0 0 113 113" fill="none" xmlns="http://www.w3.org/2000/svg">
<path fill-rule="evenodd" clip-rule="evenodd" d="M56.5 113C87.7041 113 113 87.7041 113 56.5C113 25.2959 87.7041 0 56.5 0C25.2959 0 0 25.2959 0 56.5C0 87.7041 25.2959 113 56.5 113ZM56.5 109C85.7711 109 109.5 85.4949 109.5 56.5C109.5 27.5051 85.7711 4 56.5 4C27.2289 4 3.5 27.5051 3.5 56.5C3.5 85.4949 27.2289 109 56.5 109Z" fill="url(#paint0_linear)"/>
<path d="M59.331 58.065C56.0678 58.065 52.8779 57.0918 50.1647 55.2685C47.4514 53.4452 45.3367 50.8537 44.088 47.8217C42.8392 44.7897 42.5124 41.4533 43.1491 38.2345C43.7857 35.0157 45.3571 32.0591 47.6645 29.7385C49.9719 27.4179 52.9118 25.8375 56.1122 25.1973C59.3127 24.557 62.6301 24.8856 65.6449 26.1415C68.6597 27.3974 71.2365 29.5242 73.0495 32.253C74.8624 34.9817 75.83 38.1899 75.83 41.4717C75.8263 45.8714 74.0869 50.0898 70.9935 53.2008C67.9001 56.3118 63.7057 58.0613 59.331 58.065ZM59.331 27.2791C56.5383 27.2791 53.8082 28.112 51.4862 29.6726C49.1642 31.2332 47.3545 33.4513 46.2861 36.0464C45.2177 38.6415 44.9385 41.4969 45.4838 44.2516C46.0292 47.0062 47.3746 49.5363 49.3499 51.5219C51.3252 53.5075 53.8416 54.8593 56.5809 55.4064C59.3201 55.9535 62.1592 55.6713 64.739 54.5955C67.3188 53.5197 69.5234 51.6986 71.074 49.3625C72.6245 47.0265 73.4514 44.2804 73.45 41.4717C73.4445 37.7081 71.9549 34.1003 69.3081 31.4397C66.6613 28.7791 63.0733 27.2828 59.331 27.2791Z" fill="url(#paint1_linear)" stroke="url(#paint2_linear)" stroke-width="1.4"/>
<path d="M85.3566 62.4298C84.6856 61.6191 83.756 61.0674 82.726 60.8684C81.6961 60.6695 80.6294 60.8356 79.7076 61.3386L78.4056 59.7475C77.8356 59.0757 77.0429 58.6342 76.1743 58.5048C75.3056 58.3754 74.4197 58.5667 73.6806 59.0435L72.3996 59.8954L71.6296 58.9731C71.0608 58.3018 70.2693 57.8606 69.4018 57.7311C68.5344 57.6017 67.6497 57.7928 66.9116 58.2691L58.2176 63.9645L48.5576 59.9658C47.0617 59.352 45.4303 59.1498 43.8311 59.3799C42.2318 59.61 40.7223 60.2642 39.4576 61.2752L27.1376 71.1312C27.0048 71.2253 26.8926 71.3456 26.8078 71.4849C26.723 71.6242 26.6675 71.7795 26.6447 71.9412C26.6218 72.1029 26.6321 72.2676 26.6749 72.4252C26.7177 72.5827 26.7921 72.7298 26.8936 72.8573C26.995 72.9848 27.1214 73.0901 27.2648 73.1667C27.4082 73.2433 27.5657 73.2895 27.7276 73.3026C27.8895 73.3157 28.0523 73.2953 28.206 73.2427C28.3598 73.1901 28.5012 73.1064 28.6216 72.9968L40.9416 63.1408C41.8786 62.3895 42.9985 61.9039 44.1849 61.7343C45.3714 61.5647 46.5814 61.7173 47.6896 62.1763L64.7696 69.2163C65.2893 69.4511 65.6985 69.879 65.9114 70.4104C66.1244 70.9419 66.1245 71.5356 65.9119 72.0672C65.6992 72.5987 65.2902 73.0269 64.7706 73.2618C64.251 73.4968 63.6611 73.5204 63.1246 73.3277L51.5676 68.7939C51.4204 68.726 51.261 68.689 51.0991 68.6851C50.9372 68.6813 50.7763 68.7107 50.6261 68.7716C50.4759 68.8325 50.3397 68.9236 50.2257 69.0393C50.1117 69.1549 50.0224 69.2928 49.9633 69.4444C49.9041 69.596 49.8764 69.7581 49.8817 69.9209C49.887 70.0837 49.9253 70.2436 49.9942 70.391C50.0632 70.5384 50.1613 70.67 50.2825 70.7779C50.4038 70.8858 50.5457 70.9677 50.6996 71.0186L62.2215 75.5875C62.7552 75.7955 63.3223 75.9029 63.8946 75.9043C65.0747 75.9022 66.2091 75.4446 67.0635 74.6258C67.918 73.8071 68.4274 72.6898 68.4866 71.5043L68.6196 71.4339L80.6596 63.528C81.1387 63.2285 81.7145 63.1271 82.2663 63.245C82.8181 63.3629 83.3032 63.691 83.6199 64.1605C83.9365 64.6301 84.0603 65.2047 83.9652 65.7639C83.87 66.3231 83.5634 66.8237 83.1096 67.1606L66.7996 78.7907C65.7649 79.5317 64.5775 80.0285 63.3255 80.2443C62.0736 80.46 60.7895 80.3891 59.5686 80.0368L45.7996 76.1367C44.5512 75.7826 43.2364 75.7366 41.9666 76.0025C40.6968 76.2685 39.5096 76.8385 38.5056 77.6643L34.7956 80.7267C34.6097 80.8843 34.4762 81.0953 34.4131 81.3314C34.35 81.5675 34.3603 81.8173 34.4426 82.0474C34.525 82.2774 34.6754 82.4765 34.8736 82.618C35.0719 82.7595 35.3085 82.8365 35.5516 82.8387C35.8248 82.8415 36.0902 82.7467 36.3006 82.5712L40.0456 79.544C40.7523 78.9613 41.5886 78.5591 42.4832 78.3716C43.3778 78.184 44.3042 78.2167 45.1835 78.4669L58.9176 82.36C60.4777 82.8028 62.1169 82.8871 63.7139 82.6069C65.3108 82.3266 66.8247 81.6889 68.1436 80.7408L84.4885 69.1107C85.0026 68.7455 85.4359 68.277 85.761 67.735C86.0861 67.193 86.296 66.5891 86.3776 65.9615C86.4591 65.3338 86.4105 64.6959 86.2348 64.0881C86.0591 63.4802 85.76 62.9156 85.3566 62.4298ZM68.1576 60.2685C68.4113 60.1065 68.7147 60.0423 69.0119 60.0875C69.309 60.1328 69.5799 60.2846 69.7746 60.5149L70.3625 61.2189L63.1455 65.999L60.8846 65.0627L68.1576 60.2685ZM67.8916 69.0474C67.4164 68.1903 66.6803 67.5092 65.7916 67.1043L74.9546 61.0429C75.208 60.8816 75.5105 60.817 75.8072 60.8609C76.1039 60.9048 76.3751 61.0543 76.5716 61.2822L77.6776 62.648L67.8916 69.0474Z" fill="url(#paint3_linear)" stroke="url(#paint4_linear)" stroke-width="1.4"/>
<path d="M59.4785 36.3325C60.6386 36.3708 61.791 36.536 62.9155 36.8253C63.22 36.9093 63.5452 36.8682 63.8195 36.7111C64.0939 36.554 64.295 36.2937 64.3785 35.9875C64.4621 35.6813 64.4212 35.3543 64.265 35.0783C64.1088 34.8024 63.85 34.6002 63.5455 34.5162C62.6005 34.2732 61.6389 34.1014 60.6685 34.0022V32.376C60.6685 32.0586 60.5431 31.7542 60.32 31.5297C60.0968 31.3053 59.7941 31.1792 59.4785 31.1792C59.1629 31.1792 58.8602 31.3053 58.6371 31.5297C58.4139 31.7542 58.2885 32.0586 58.2885 32.376V34.0163C55.0965 34.4528 54.7115 36.6422 54.7115 37.6419C54.7115 40.127 57.2595 41.1619 58.7855 41.8096L59.0795 41.9293L59.5275 42.1123C61.0675 42.7248 61.7395 43.112 61.7395 44.2243C61.7395 45.3366 60.9975 45.8787 59.5485 45.9421H59.4785H59.2965C57.9317 45.8159 56.5924 45.491 55.3205 44.9776C55.1732 44.9129 55.0144 44.8789 54.8537 44.8776C54.693 44.8763 54.5337 44.9078 54.3854 44.9701C54.2372 45.0325 54.103 45.1243 53.9909 45.2403C53.8789 45.3562 53.7914 45.4937 53.7337 45.6445C53.676 45.7954 53.6492 45.9564 53.6551 46.1179C53.6609 46.2795 53.6993 46.4381 53.7677 46.5843C53.8362 46.7306 53.9334 46.8613 54.0535 46.9687C54.1736 47.0761 54.3141 47.158 54.4665 47.2093C55.7021 47.6828 56.9828 48.0272 58.2885 48.2371V49.8493C58.2885 50.1667 58.4139 50.4711 58.6371 50.6955C58.8602 50.92 59.1629 51.0461 59.4785 51.0461C59.7941 51.0461 60.0968 50.92 60.32 50.6955C60.5431 50.4711 60.6685 50.1667 60.6685 49.8493V48.1808C62.8315 47.7584 64.1195 46.3152 64.1195 44.1891C64.1195 41.3731 61.7955 40.4438 60.4095 39.8877L59.7095 39.592C58.6175 39.1414 57.1125 38.5219 57.1125 37.6419C57.0915 37.2195 57.0915 36.3325 59.4785 36.3325Z" fill="url(#paint5_linear)" stroke="url(#paint6_linear)" stroke-width="1.4"/>
<defs>
<linearGradient id="paint0_linear" x1="56.5" y1="0" x2="35.64" y2="118.375" gradientUnits="userSpaceOnUse">
<stop stop-color="#50CFFA"/>
<stop offset="0.999201" stop-color="#52A2ED"/>
</linearGradient>
<linearGradient id="paint1_linear" x1="59.331" y1="24.8784" x2="53.1719" y2="59.6317" gradientUnits="userSpaceOnUse">
<stop stop-color="#50CFFA"/>
<stop offset="0.999201" stop-color="#52A2ED"/>
</linearGradient>
<linearGradient id="paint2_linear" x1="59.331" y1="24.8784" x2="59.331" y2="58.065" gradientUnits="userSpaceOnUse">
<stop stop-color="#50CFFA"/>
<stop offset="1" stop-color="#51A5EE"/>
</linearGradient>
<linearGradient id="paint3_linear" x1="56.5244" y1="57.6917" x2="54.5221" y2="84.7046" gradientUnits="userSpaceOnUse">
<stop stop-color="#50CFFA"/>
<stop offset="0.999201" stop-color="#52A2ED"/>
</linearGradient>
<linearGradient id="paint4_linear" x1="56.5244" y1="57.6917" x2="56.5244" y2="82.8388" gradientUnits="userSpaceOnUse">
<stop stop-color="#50CFFA"/>
<stop offset="1" stop-color="#51A5EE"/>
</linearGradient>
<linearGradient id="paint5_linear" x1="59.0376" y1="31.1792" x2="52.7274" y2="50.5855" gradientUnits="userSpaceOnUse">
<stop stop-color="#50CFFA"/>
<stop offset="0.999201" stop-color="#52A2ED"/>
</linearGradient>
<linearGradient id="paint6_linear" x1="59.0376" y1="31.1792" x2="59.0376" y2="51.0461" gradientUnits="userSpaceOnUse">
<stop stop-color="#50CFFA"/>
<stop offset="1" stop-color="#51A5EE"/>
</linearGradient>
</defs>
</svg>

<svg width="113" height="113" fill="none" xmlns="http://www.w3.org/2000/svg"><path fill-rule="evenodd" clip-rule="evenodd" d="M56.5 113c31.204 0 56.5-25.296 56.5-56.5S87.704 0 56.5 0 0 25.296 0 56.5 25.296 113 56.5 113zm0-4c29.271 0 53-23.505 53-52.5S85.771 4 56.5 4s-53 23.505-53 52.5 23.729 52.5 53 52.5z" fill="url(#paint0_linear)"/><path d="M59.331 58.065c-3.263 0-6.453-.973-9.166-2.796a16.572 16.572 0 01-6.077-7.447 16.68 16.68 0 01-.939-9.588 16.623 16.623 0 014.515-8.496 16.47 16.47 0 018.448-4.54c3.2-.641 6.518-.312 9.533.944a16.52 16.52 0 017.404 6.111 16.655 16.655 0 01-2.056 20.948 16.466 16.466 0 01-11.662 4.864zm0-30.786a14.06 14.06 0 00-7.845 2.394 14.182 14.182 0 00-5.2 6.373 14.276 14.276 0 00-.802 8.206 14.225 14.225 0 003.866 7.27 14.094 14.094 0 007.23 3.884c2.74.547 5.58.265 8.159-.81a14.137 14.137 0 006.335-5.233 14.255 14.255 0 00-1.766-17.923 14.092 14.092 0 00-9.977-4.16z" fill="url(#paint1_linear)" stroke="url(#paint2_linear)" stroke-width="1.4"/><path d="M85.357 62.43a4.513 4.513 0 00-5.649-1.091l-1.302-1.591a3.616 3.616 0 00-4.725-.704l-1.281.851-.77-.922a3.61 3.61 0 00-4.718-.704l-8.694 5.696-9.66-4a9.053 9.053 0 00-9.1 1.31l-12.32 9.856a1.195 1.195 0 00-.463 1.294 1.198 1.198 0 001.053.878 1.183 1.183 0 00.894-.306l12.32-9.856a6.685 6.685 0 016.748-.965l17.08 7.04c.52.235.928.663 1.141 1.194a2.23 2.23 0 010 1.657 2.197 2.197 0 01-2.786 1.261l-11.557-4.534a1.187 1.187 0 00-1.605.65 1.202 1.202 0 00.737 1.575l11.521 4.569a4.632 4.632 0 001.674.316 4.592 4.592 0 003.169-1.278 4.644 4.644 0 001.423-3.122l.133-.07 12.04-7.906a2.173 2.173 0 012.96.633 2.207 2.207 0 01-.51 3L66.8 78.79a8.403 8.403 0 01-7.231 1.246l-13.77-3.9a8.02 8.02 0 00-7.293 1.527l-3.71 3.063a1.198 1.198 0 00-.353 1.32 1.197 1.197 0 001.109.792 1.15 1.15 0 00.749-.268l3.745-3.027a5.655 5.655 0 015.138-1.077l13.734 3.893a10.756 10.756 0 009.226-1.62l16.344-11.63a4.601 4.601 0 00.868-6.68zm-17.2-2.161a1.24 1.24 0 011.618.246l.587.704-7.216 4.78-2.261-.936 7.273-4.794zm-.265 8.778a4.568 4.568 0 00-2.1-1.943l9.163-6.061a1.247 1.247 0 011.617.24l1.106 1.365-9.786 6.4z" fill="url(#paint3_linear)" stroke="url(#paint4_linear)" stroke-width="1.4"/><path d="M59.478 36.333a15.9 15.9 0 013.438.492c.304.084.63.043.904-.114s.475-.417.559-.724a1.203 1.203 0 00-.114-.909 1.191 1.191 0 00-.72-.562 19.525 19.525 0 00-2.877-.514v-1.626a1.2 1.2 0 00-.348-.846 1.187 1.187 0 00-1.683 0 1.2 1.2 0 00-.349.846v1.64c-3.191.437-3.576 2.626-3.576 3.626 0 2.485 2.547 3.52 4.073 4.168l.295.12.448.182c1.54.613 2.212 1 2.212 2.112 0 1.113-.742 1.655-2.192 1.718h-.251a14.087 14.087 0 01-3.976-.964 1.184 1.184 0 00-1.587.666 1.203 1.203 0 00.733 1.565c1.235.474 2.516.818 3.822 1.028v1.612c0 .318.125.622.348.847a1.186 1.186 0 001.683 0 1.2 1.2 0 00.349-.847v-1.668c2.163-.423 3.45-1.866 3.45-3.992 0-2.816-2.324-3.745-3.71-4.301l-.7-.296c-1.092-.45-2.597-1.07-2.597-1.95-.02-.423-.02-1.31 2.366-1.31z" fill="url(#paint5_linear)" stroke="url(#paint6_linear)" stroke-width="1.4"/><defs><linearGradient id="paint0_linear" x1="56.5" y1="0" x2="35.64" y2="118.375" gradientUnits="userSpaceOnUse"><stop stop-color="#50CFFA"/><stop offset=".999" stop-color="#52A2ED"/></linearGradient><linearGradient id="paint1_linear" x1="59.331" y1="24.878" x2="53.172" y2="59.632" gradientUnits="userSpaceOnUse"><stop stop-color="#50CFFA"/><stop offset=".999" stop-color="#52A2ED"/></linearGradient><linearGradient id="paint2_linear" x1="59.331" y1="24.878" x2="59.331" y2="58.065" gradientUnits="userSpaceOnUse"><stop stop-color="#50CFFA"/><stop offset="1" stop-color="#51A5EE"/></linearGradient><linearGradient id="paint3_linear" x1="56.524" y1="57.692" x2="54.522" y2="84.705" gradientUnits="userSpaceOnUse"><stop stop-color="#50CFFA"/><stop offset=".999" stop-color="#52A2ED"/></linearGradient><linearGradient id="paint4_linear" x1="56.524" y1="57.692" x2="56.524" y2="82.839" gradientUnits="userSpaceOnUse"><stop stop-color="#50CFFA"/><stop offset="1" stop-color="#51A5EE"/></linearGradient><linearGradient id="paint5_linear" x1="59.038" y1="31.179" x2="52.727" y2="50.586" gradientUnits="userSpaceOnUse"><stop stop-color="#50CFFA"/><stop offset=".999" stop-color="#52A2ED"/></linearGradient><linearGradient id="paint6_linear" x1="59.038" y1="31.179" x2="59.038" y2="51.046" gradientUnits="userSpaceOnUse"><stop stop-color="#50CFFA"/><stop offset="1" stop-color="#51A5EE"/></linearGradient></defs></svg>
